svg/fuel_cell.svg

<svg xmlns="http://www.w3.org/2000/svg" viewBox="0 0 24 24"><path d="M6 3v2H4c-1.1 0-2 .9-2 2v10c0 1.1.9 2 2 2v1c0 1.1.9 2 2 2h1c1.1 0 2-.9 2-2v-1h6v1c0 1.1.9 2 2 2h1c1.1 0 2-.9 2-2v-1c1.1 0 2-.9 2-2H11V5H8V3zm10 0v2h-3v2h9c0-1.1-.9-2-2-2h-2V3zM7 7v4h2l-3 6v-4H4zm6 2v2h9V9zm0 4v2h9v-2z"/></svg>

<svg xmlns="http://www.w3.org/2000/svg" id="mdi-fuel-cell" viewBox="0 0 24 24"><path d="M6 3V5H4C2.9 5 2 5.9 2 7V17C2 18.1 2.9 19 4 19V20C4 21.1 4.9 22 6 22H7C8.1 22 9 21.1 9 20V19H15V20C15 21.1 15.9 22 17 22H18C19.1 22 20 21.1 20 20V19C21.1 19 22 18.1 22 17H11V5H8V3H6M16 3V5H13V7H22C22 5.9 21.1 5 20 5H18V3H16M7 7V11H9L6 17V13H4L7 7M13 9V11H22V9H13M13 13V15H22V13H13Z" /></svg>
